papirus/22x22/apps/qbittorrent.svg

<?xml version="1.0" encoding="UTF-8" standalone="no"?>
<svg id="svg2817" xmlns:rdf="http://www.w3.org/1999/02/22-rdf-syntax-ns#" xmlns="http://www.w3.org/2000/svg" height="22" width="22" version="1.0" xmlns:cc="http://creativecommons.org/ns#" xmlns:dc="http://purl.org/dc/elements/1.1/">
 <metadata id="metadata57">
  <rdf:RDF>
   <cc:Work rdf:about="">
    <dc:format>image/svg+xml</dc:format>
    <dc:type rdf:resource="http://purl.org/dc/dcmitype/StillImage"/>
    <dc:title/>
   </cc:Work>
  </rdf:RDF>
 </metadata>
 <defs id="defs2819">
  <clipPath id="clipPath4186" clipPathUnits="userSpaceOnUse">
   <circle id="path4188" style="color:#000000" cy="26" cx="286" r="10" fill="url(#linearGradient4190)"/>
  </clipPath>
 </defs>
 <g id="g4280" transform="translate(-1,-1)">
  <circle id="path4230" style="color:#000000" cx="12" cy="12" r="10" fill="#2f67ba"/>
  <circle id="path4240" opacity="0" style="color:#000000" stroke-width=".45455" clip-path="url(#clipPath4186)" transform="translate(-274,-14)" cy="26" cx="286" r="10"/>
  <circle id="path4242" opacity="0" style="color:#000000" stroke-width=".90909" clip-path="url(#clipPath4186)" transform="translate(-274,-14)" cy="26" cx="286" r="10"/>
  <path id="rect3436" opacity=".2" fill="#fff" d="m12 2c-5.5395 0-9.999 4.46-9.999 10 0 0.08386-0.002 0.16664 0 0.25 0.1321-5.423 4.5435-9.75 9.999-9.75s9.867 4.3268 9.999 9.75c0.002-0.08335 0-0.16614 0-0.25 0-5.54-4.459-10-9.999-10z"/>
  <path id="circle4330" opacity=".2" style="color:#000000" d="m21.99 12.209a10 10 0 0 1 -9.99 9.791 10 10 0 0 1 -9.989 -9.709 10 10 0 0 0 -0.011 0.209 10 10 0 0 0 10 10 10 10 0 0 0 10 -10 10 10 0 0 0 -0.0105 -0.291z"/>
  <path id="path4159" opacity=".2" d="m7 8.5a4 4 0 0 0 -4 4 4 4 0 0 0 4 4 4 4 0 0 0 2 -0.54004v4.54h2v-8-4h-2v0.54199a4 4 0 0 0 -2 -0.542zm0 2a2 2 0 0 1 2 2 2 2 0 0 1 -2 2 2 2 0 0 1 -2 -2 2 2 0 0 1 2 -2z"/>
  <path id="path4143" d="m7 8a4 4 0 0 0 -4 4 4 4 0 0 0 4 4 4 4 0 0 0 2 -0.54004v4.54h2v-8-4h-2v0.542a4 4 0 0 0 -2 -0.542zm0 2a2 2 0 0 1 2 2 2 2 0 0 1 -2 2 2 2 0 0 1 -2 -2 2 2 0 0 1 2 -2z" fill="#7fc1de"/>
  <path id="path4161" opacity=".2" d="m17 16.5a4 4 0 0 0 4 -4 4 4 0 0 0 -4 -4 4 4 0 0 0 -2 0.54004v-4.54h-2v8 4h2v-0.54199a4 4 0 0 0 2 0.542zm0-2a2 2 0 0 1 -2 -2 2 2 0 0 1 2 -2 2 2 0 0 1 2 2 2 2 0 0 1 -2 2z"/>
  <path id="path4151" d="m17 16a4 4 0 0 0 4 -4 4 4 0 0 0 -4 -4 4 4 0 0 0 -2 0.54v-4.54h-2v8 4h2v-0.54199a4 4 0 0 0 2 0.542zm0-2a2 2 0 0 1 -2 -2 2 2 0 0 1 2 -2 2 2 0 0 1 2 2 2 2 0 0 1 -2 2z" fill="#fff"/>
 </g>
</svg>

<?xml version="1.0" encoding="UTF-8" standalone="no"?>
<svg
   xmlns:dc="http://purl.org/dc/elements/1.1/"
   xmlns:cc="http://creativecommons.org/ns#"
   xmlns:rdf="http://www.w3.org/1999/02/22-rdf-syntax-ns#"
   xmlns:svg="http://www.w3.org/2000/svg"
   xmlns="http://www.w3.org/2000/svg"
   version="1.0"
   width="22"
   height="22"
   id="svg2817">
  <metadata
     id="metadata57">
    <rdf:RDF>
      <cc:Work
         rdf:about="">
        <dc:format>image/svg+xml</dc:format>
        <dc:type
           rdf:resource="http://purl.org/dc/dcmitype/StillImage" />
        <dc:title></dc:title>
      </cc:Work>
    </rdf:RDF>
  </metadata>
  <defs
     id="defs2819">
    <clipPath
       clipPathUnits="userSpaceOnUse"
       id="clipPath4186">
      <circle
         r="10"
         cx="286"
         cy="26"
         style="color:#000000;fill:url(#linearGradient4190)"
         id="path4188" />
    </clipPath>
  </defs>
  <g
     transform="translate(-1,-1)"
     id="g4280">
    <circle
       id="path4230"
       style="color:#000000;fill:#2f67ba;fill-opacity:1"
       cx="12"
       cy="12"
       r="10" />
    <circle
       id="path4240"
       style="color:#000000;opacity:0;stroke-width:0.45455"
       clip-path="url(#clipPath4186)"
       transform="translate(-274,-14)"
       cy="26"
       cx="286"
       r="10" />
    <circle
       id="path4242"
       style="color:#000000;opacity:0;stroke-width:0.90908998"
       clip-path="url(#clipPath4186)"
       transform="translate(-274,-14)"
       cy="26"
       cx="286"
       r="10" />
    <path
       style="opacity:0.2;fill:#ffffff"
       id="rect3436"
       d="M 12,2 C 6.4605,2 2.001,6.46 2.001,12 c 0,0.08386 -0.002,0.166645 0,0.25 C 2.1331,6.827 6.5445,2.5 12,2.5 c 5.4555,0 9.867,4.3268 9.999,9.75 0.002,-0.08335 0,-0.16614 0,-0.25 C 21.999,6.46 17.5395,2 12,2 Z" />
    <path
       id="circle4330"
       style="color:#000000;opacity:0.2"
       d="M 21.9895,12.209 A 10,10 0 0 1 12,22 10,10 0 0 1 2.011,12.291 10,10 0 0 0 2,12.5 a 10,10 0 0 0 10,10 10,10 0 0 0 10,-10 10,10 0 0 0 -0.0105,-0.291 z" />
    <path
       id="path4159"
       d="m 7,8.5 a 4,4 0 0 0 -4,4 4,4 0 0 0 4,4 4,4 0 0 0 2,-0.540039 L 9,20.5 l 2,0 0,-8 0,-4 -2,0 0,0.541992 A 4,4 0 0 0 7,8.5 Z m 0,2 a 2,2 0 0 1 2,2 2,2 0 0 1 -2,2 2,2 0 0 1 -2,-2 2,2 0 0 1 2,-2 z"
       style="opacity:0.2;fill:#000000;fill-opacity:1;stroke:none;stroke-width:4;stroke-linecap:round;stroke-linejoin:round;stroke-miterlimit:4;stroke-dasharray:none;stroke-opacity:1" />
    <path
       style="opacity:1;fill:#7fc1de;fill-opacity:1;stroke:none;stroke-width:4;stroke-linecap:round;stroke-linejoin:round;stroke-miterlimit:4;stroke-dasharray:none;stroke-opacity:1"
       d="m 7,8 a 4,4 0 0 0 -4,4 4,4 0 0 0 4,4 4,4 0 0 0 2,-0.540039 L 9,20 11,20 11,12 11,8 9,8 9,8.541992 A 4,4 0 0 0 7,8 Z m 0,2 a 2,2 0 0 1 2,2 2,2 0 0 1 -2,2 2,2 0 0 1 -2,-2 2,2 0 0 1 2,-2 z"
       id="path4143" />
    <path
       style="opacity:0.2;fill:#000000;fill-opacity:1;stroke:none;stroke-width:4;stroke-linecap:round;stroke-linejoin:round;stroke-miterlimit:4;stroke-dasharray:none;stroke-opacity:1"
       d="m 17,16.5 a 4,4 0 0 0 4,-4 4,4 0 0 0 -4,-4 4,4 0 0 0 -2,0.540039 L 15,4.5 l -2,0 0,8 0,4 2,0 0,-0.541992 A 4,4 0 0 0 17,16.5 Z m 0,-2 a 2,2 0 0 1 -2,-2 2,2 0 0 1 2,-2 2,2 0 0 1 2,2 2,2 0 0 1 -2,2 z"
       id="path4161" />
    <path
       id="path4151"
       d="M 17,16 A 4,4 0 0 0 21,12 4,4 0 0 0 17,8 4,4 0 0 0 15,8.540039 L 15,4 l -2,0 0,8 0,4 2,0 0,-0.541992 A 4,4 0 0 0 17,16 Z m 0,-2 a 2,2 0 0 1 -2,-2 2,2 0 0 1 2,-2 2,2 0 0 1 2,2 2,2 0 0 1 -2,2 z"
       style="opacity:1;fill:#ffffff;fill-opacity:1;stroke:none;stroke-width:4;stroke-linecap:round;stroke-linejoin:round;stroke-miterlimit:4;stroke-dasharray:none;stroke-opacity:1" />
  </g>
</svg>
